assets/img/braze_icons/cursor-click-02.svg

<svg fill="none" height="24" viewBox="0 0 24 24" width="24" xmlns="http://www.w3.org/2000/svg"><g fill="#801ed7"><path d="m9 1c.55229 0 1 .44772 1 1v1.5c0 .55228-.44771 1-1 1-.55228 0-1-.44772-1-1v-1.5c0-.55228.44772-1 1-1z"/><path d="m3.29289 3.29289c.39053-.39052 1.02369-.39052 1.41422 0l1.06066 1.06066c.39052.39053.39052 1.02369 0 1.41422-.39053.39052-1.02369.39052-1.41422 0l-1.06066-1.06066c-.39052-.39053-.39052-1.02369 0-1.41422z"/><path d="m5.76777 13.7071c.39052-.3905.39052-1.0237 0-1.4142-.39053-.3905-1.02369-.3905-1.41422 0l-1.06066 1.0607c-.39052.3905-.39052 1.0236 0 1.4142.39053.3905 1.02369.3905 1.41422 0z"/><path d="m14.7678 3.29289c.3905.39053.3905 1.02369 0 1.41422l-1.0607 1.06066c-.3905.39052-1.0237.39052-1.4142 0-.3905-.39053-.3905-1.02369 0-1.41422l1.0607-1.06066c.3905-.39052 1.0236-.39052 1.4142 0z"/><path d="m2 8c-.55228 0-1 .44772-1 1 0 .55229.44772 1 1 1h1.5c.55228 0 1-.44771 1-1 0-.55228-.44772-1-1-1z"/><path d="m8.8063 7.54808c-.35698-.11485-.74821-.02033-1.01338.24484s-.35969.6564-.24484 1.01338l4.11112 12.7778c.1067.3317.3784.5839.7171.6657.3387.0819.6956-.0185.9419-.2649l2.1818-2.1818 2.904 2.904c.1876.1876.4419.2929.7071.2929.2653 0 .5196-.1053.7071-.2929l2.8889-2.8889c.1876-.1875.2929-.4418.2929-.7071 0-.2652-.1053-.5195-.2929-.7071l-2.904-2.904 2.1818-2.1818c.2464-.2463.3468-.6032.2649-.9419-.0818-.3387-.334-.6104-.6657-.7171z"/></g></svg>

<svg width="24" height="24" viewBox="0 0 24 24" fill="none" xmlns="http://www.w3.org/2000/svg">
<path d="M9 1C9.55229 1 10 1.44772 10 2V3.5C10 4.05228 9.55229 4.5 9 4.5C8.44772 4.5 8 4.05228 8 3.5V2C8 1.44772 8.44772 1 9 1Z" fill="#801ED7"/>
<path d="M3.29289 3.29289C3.68342 2.90237 4.31658 2.90237 4.70711 3.29289L5.76777 4.35355C6.15829 4.74408 6.15829 5.37724 5.76777 5.76777C5.37724 6.15829 4.74408 6.15829 4.35355 5.76777L3.29289 4.70711C2.90237 4.31658 2.90237 3.68342 3.29289 3.29289Z" fill="#801ED7"/>
<path d="M5.76777 13.7071C6.15829 13.3166 6.15829 12.6834 5.76777 12.2929C5.37724 11.9024 4.74408 11.9024 4.35355 12.2929L3.29289 13.3536C2.90237 13.7441 2.90237 14.3772 3.29289 14.7678C3.68342 15.1583 4.31658 15.1583 4.70711 14.7678L5.76777 13.7071Z" fill="#801ED7"/>
<path d="M14.7678 3.29289C15.1583 3.68342 15.1583 4.31658 14.7678 4.70711L13.7071 5.76777C13.3166 6.15829 12.6834 6.15829 12.2929 5.76777C11.9024 5.37724 11.9024 4.74408 12.2929 4.35355L13.3536 3.29289C13.7441 2.90237 14.3772 2.90237 14.7678 3.29289Z" fill="#801ED7"/>
<path d="M2 8C1.44772 8 1 8.44772 1 9C1 9.55229 1.44772 10 2 10H3.5C4.05228 10 4.5 9.55229 4.5 9C4.5 8.44772 4.05228 8 3.5 8H2Z" fill="#801ED7"/>
<path d="M8.8063 7.54808C8.44932 7.43323 8.05809 7.52775 7.79292 7.79292C7.52775 8.05809 7.43323 8.44932 7.54808 8.8063L11.6592 21.5841C11.7659 21.9158 12.0376 22.168 12.3763 22.2498C12.715 22.3317 13.0719 22.2313 13.3182 21.9849L15.5 19.8031L18.404 22.7071C18.5916 22.8947 18.8459 23 19.1111 23C19.3764 23 19.6307 22.8947 19.8182 22.7071L22.7071 19.8182C22.8947 19.6307 23 19.3764 23 19.1111C23 18.8459 22.8947 18.5916 22.7071 18.404L19.8031 15.5L21.9849 13.3182C22.2313 13.0719 22.3317 12.715 22.2498 12.3763C22.168 12.0376 21.9158 11.7659 21.5841 11.6592L8.8063 7.54808Z" fill="#801ED7"/>
</svg>
